icons/modern/snowman.svg

<svg width="32" height="32" viewBox="0 0 32 32" fill="none" xmlns="http://www.w3.org/2000/svg">
<path d="M6.92004 15.9948V13.5748" stroke="#433B6B" stroke-miterlimit="10" stroke-linecap="round" stroke-linejoin="round"/>
<path d="M5 14.6049L10.16 19.1149" stroke="#433B6B" stroke-miterlimit="10" stroke-linecap="round" stroke-linejoin="round"/>
<path d="M25.95 15.9948V13.5748" stroke="#433B6B" stroke-miterlimit="10" stroke-linecap="round" stroke-linejoin="round"/>
<path d="M27.87 14.6049L22.7 19.1149" stroke="#433B6B" stroke-miterlimit="10" stroke-linecap="round" stroke-linejoin="round"/>
<path d="M24.7 17.5449H26.94" stroke="#433B6B" stroke-miterlimit="10" stroke-linecap="round" stroke-linejoin="round"/>
<path d="M5.87 17.5349H8.10999" stroke="#433B6B" stroke-miterlimit="10" stroke-linecap="round" stroke-linejoin="round"/>
<path d="M26.66 23.2349C26.66 28.8649 22.09 30.0349 16.46 30.0349C10.83 30.0349 6.26001 28.8649 6.26001 23.2349C6.26001 17.6049 10.83 13.0349 16.46 13.0349C22.09 13.0349 26.66 17.6049 26.66 23.2349Z" fill="url(#paint0_radial_18_15559)"/>
<path d="M17.95 25.0149C17.68 25.0149 17.46 24.7949 17.46 24.5249V23.5049C17.46 23.2349 17.68 23.0149 17.95 23.0149C18.22 23.0149 18.44 23.2349 18.44 23.5049V24.5249C18.44 24.7949 18.22 25.0149 17.95 25.0149Z" fill="url(#paint1_linear_18_15559)"/>
<path d="M19.96 25.0249C19.69 25.0249 19.47 24.8049 19.47 24.5349V23.5049C19.47 23.2349 19.69 23.0149 19.96 23.0149C20.23 23.0149 20.45 23.2349 20.45 23.5049V24.5349C20.45 24.7949 20.23 25.0249 19.96 25.0249Z" fill="url(#paint2_linear_18_15559)"/>
<path d="M21.95 25.0249C21.68 25.0249 21.46 24.8049 21.46 24.5349V23.5049C21.46 23.2349 21.68 23.0149 21.95 23.0149C22.22 23.0149 22.44 23.2349 22.44 23.5049V24.5349C22.45 24.7949 22.22 25.0249 21.95 25.0249Z" fill="url(#paint3_linear_18_15559)"/>
<path d="M21.8101 24.0349H18.0801C17.7201 24.0349 17.4301 23.7449 17.4301 23.3849V18.0349H22.4601V23.3849C22.4601 23.7449 22.1701 24.0349 21.8101 24.0349Z" fill="url(#paint4_linear_18_15559)"/>
<path d="M23.58 15.6949C23.58 19.6249 20.39 20.0849 16.46 20.0849C12.53 20.0849 9.33997 19.6249 9.33997 15.6949C9.33997 11.7649 12.53 15.0549 16.46 15.0549C20.39 15.0549 23.58 11.7649 23.58 15.6949Z" fill="url(#paint5_linear_18_15559)"/>
<path d="M23.54 12.1548C23.54 16.0648 20.33 16.0048 16.41 16.0048C12.49 16.0048 9.37 16.0748 9.37 12.1548C9.37 8.23483 12.54 5.07483 16.45 5.07483C20.36 5.07483 23.54 8.24483 23.54 12.1548Z" fill="url(#paint6_radial_18_15559)"/>
<path d="M16.49 5.04489L10.96 7.41489L10.18 5.60489C9.74002 4.57489 10.21 3.38489 11.24 2.94489L13.05 2.16489C14.08 1.72489 15.26 2.19489 15.7 3.22489L16.49 5.04489Z" fill="url(#paint7_linear_18_15559)"/>
<path d="M15.9101 5.29486L11.5401 7.17486C11.2201 7.30486 10.8501 7.16486 10.7101 6.84486L10.1801 5.60486L15.7101 3.23486L16.2401 4.47486C16.3701 4.78486 16.2301 5.15486 15.9101 5.29486Z" fill="url(#paint8_linear_18_15559)"/>
<path d="M17.03 5.61493L10.98 8.20493C10.62 8.36493 10.2 8.19493 10.04 7.83493C9.89001 7.47493 10.06 7.04493 10.42 6.89493L16.46 4.30493C16.82 4.14493 17.24 4.31493 17.4 4.68493C17.56 5.03493 17.39 5.45493 17.03 5.61493Z" fill="url(#paint9_linear_18_15559)"/>
<path d="M14.96 9.84488C14.73 9.84488 14.55 9.67488 14.55 9.46488V8.75488C14.55 8.54488 14.74 8.37488 14.96 8.37488C15.18 8.37488 15.37 8.54488 15.37 8.75488V9.46488C15.37 9.67488 15.19 9.84488 14.96 9.84488Z" fill="#433B6B"/>
<path d="M17.96 9.84488C17.73 9.84488 17.55 9.67488 17.55 9.46488V8.75488C17.55 8.54488 17.74 8.37488 17.96 8.37488C18.18 8.37488 18.37 8.54488 18.37 8.75488V9.46488C18.37 9.67488 18.19 9.84488 17.96 9.84488Z" fill="#433B6B"/>
<path d="M20.61 11.1348L16.55 10.7148C16.1 10.7148 15.74 11.0748 15.74 11.5248C15.74 11.9748 16.1 12.3348 16.55 12.3348L20.61 11.9148C20.83 11.9148 21.01 11.7348 21.01 11.5148C21.01 11.2948 20.83 11.1348 20.61 11.1348Z" fill="url(#paint10_linear_18_15559)"/>
<path d="M26.48 4.70485H26.28L26.42 4.56485C26.62 4.35485 26.62 4.02485 26.42 3.81485C26.21 3.60485 25.88 3.60485 25.67 3.81485L25.53 3.95485V3.75485C25.53 3.46485 25.29 3.22485 25 3.22485C24.71 3.22485 24.47 3.46485 24.47 3.75485V3.95485L24.33 3.81485C24.13 3.60485 23.79 3.60485 23.58 3.81485C23.37 4.02485 23.37 4.35485 23.58 4.56485L23.72 4.70485H23.52C23.24 4.70485 23 4.94485 23 5.23485C23 5.52485 23.24 5.76485 23.53 5.76485H23.73L23.59 5.90485C23.38 6.11485 23.38 6.44485 23.59 6.65485C23.79 6.86485 24.13 6.86485 24.34 6.65485L24.48 6.51485V6.71485C24.48 7.00485 24.72 7.24485 25.01 7.24485C25.3 7.24485 25.54 7.00485 25.54 6.71485V6.50485L25.68 6.64485C25.88 6.85485 26.22 6.85485 26.43 6.64485C26.63 6.43485 26.63 6.10485 26.43 5.89485L26.29 5.75485H26.49C26.78 5.75485 27.02 5.51485 27.02 5.22485C27.01 4.94485 26.77 4.70485 26.48 4.70485Z" fill="url(#paint11_radial_18_15559)"/>
<path d="M5.48 9.70486H5.28L5.42 9.56486C5.62 9.35486 5.62 9.02486 5.42 8.81486C5.21 8.60486 4.88 8.60486 4.67 8.81486L4.53 8.96486V8.76486C4.53 8.47486 4.29 8.23486 4 8.23486C3.71 8.23486 3.47 8.47486 3.47 8.76486V8.96486L3.33 8.81486C3.13 8.60486 2.79 8.60486 2.58 8.81486C2.37 9.02486 2.37 9.35486 2.58 9.56486L2.73 9.70486H2.53C2.24 9.70486 2 9.94486 2 10.2349C2 10.5249 2.24 10.7649 2.53 10.7649H2.73L2.59 10.9049C2.38 11.1149 2.38 11.4449 2.59 11.6549C2.79 11.8649 3.13 11.8649 3.34 11.6549L3.48 11.5049V11.7049C3.48 11.9949 3.72 12.2349 4.01 12.2349C4.3 12.2349 4.54 11.9949 4.54 11.7049V11.5049L4.68 11.6449C4.88 11.8549 5.22 11.8549 5.43 11.6449C5.63 11.4349 5.63 11.1049 5.43 10.8949L5.28 10.7649H5.48C5.77 10.7649 6.01 10.5249 6.01 10.2349C6.01 9.94486 5.77 9.70486 5.48 9.70486Z" fill="url(#paint12_radial_18_15559)"/>
<path d="M27.72 9.9349H27.61L27.69 9.8549C27.8 9.7449 27.8 9.5649 27.69 9.4549C27.58 9.3449 27.4 9.3449 27.29 9.4549L27.21 9.5349V9.4249C27.21 9.2749 27.08 9.1449 26.93 9.1449C26.78 9.1449 26.65 9.2749 26.65 9.4249V9.5349L26.57 9.4549C26.46 9.3449 26.28 9.3449 26.17 9.4549C26.06 9.5649 26.06 9.7449 26.17 9.8549L26.25 9.9349H26.14C25.99 9.9349 25.86 10.0649 25.86 10.2149C25.86 10.3649 25.99 10.4949 26.14 10.4949H26.25L26.17 10.5749C26.06 10.6849 26.06 10.8649 26.17 10.9749C26.28 11.0849 26.46 11.0849 26.57 10.9749L26.65 10.8949V11.0049C26.65 11.1549 26.78 11.2849 26.93 11.2849C27.08 11.2849 27.21 11.1549 27.21 11.0049V10.8949L27.29 10.9749C27.4 11.0849 27.58 11.0849 27.69 10.9749C27.8 10.8649 27.8 10.6849 27.69 10.5749L27.61 10.4949H27.72C27.87 10.4949 28 10.3649 28 10.2149C28 10.0549 27.88 9.9349 27.72 9.9349Z" fill="url(#paint13_radial_18_15559)"/>
<path d="M6.78994 4.95479H6.68994L6.76994 4.87479C6.87994 4.76479 6.87994 4.58479 6.76994 4.47479C6.65994 4.36479 6.47994 4.36479 6.36994 4.47479L6.28994 4.55479V4.44479C6.28994 4.29479 6.15994 4.16479 6.00994 4.16479C5.85994 4.16479 5.72994 4.29479 5.72994 4.44479V4.55479L5.64994 4.47479C5.53994 4.36479 5.35994 4.36479 5.24994 4.47479C5.13994 4.58479 5.13994 4.76479 5.24994 4.87479L5.32994 4.95479H5.21994C5.06994 4.95479 4.93994 5.08479 4.93994 5.23479C4.93994 5.38479 5.06994 5.51479 5.21994 5.51479H5.32994L5.24994 5.59479C5.13994 5.70479 5.13994 5.88479 5.24994 5.99479C5.35994 6.10479 5.53994 6.10479 5.64994 5.99479L5.72994 5.91479V6.02479C5.72994 6.17479 5.85994 6.3048 6.00994 6.3048C6.15994 6.3048 6.28994 6.17479 6.28994 6.02479V5.91479L6.36994 5.99479C6.47994 6.10479 6.65994 6.10479 6.76994 5.99479C6.87994 5.88479 6.87994 5.70479 6.76994 5.59479L6.68994 5.51479H6.79994C6.94994 5.51479 7.07994 5.38479 7.07994 5.23479C7.07994 5.08479 6.94994 4.95479 6.78994 4.95479Z" fill="url(#paint14_radial_18_15559)"/>
<path d="M4.66005 19.9349H4.55005L4.63005 19.8549C4.74005 19.7449 4.74005 19.5649 4.63005 19.4549C4.52005 19.3449 4.34005 19.3449 4.23005 19.4549L4.15005 19.5349V19.4249C4.15005 19.2749 4.02005 19.1449 3.87005 19.1449C3.72005 19.1449 3.59005 19.2749 3.59005 19.4249V19.5349L3.51005 19.4549C3.40005 19.3449 3.22005 19.3449 3.11005 19.4549C3.00005 19.5649 3.00005 19.7449 3.11005 19.8549L3.19005 19.9349H3.08005C2.93005 19.9349 2.80005 20.0649 2.80005 20.2149C2.80005 20.3649 2.93005 20.4949 3.08005 20.4949H3.19005L3.11005 20.5749C3.00005 20.6849 3.00005 20.8649 3.11005 20.9749C3.22005 21.0849 3.40005 21.0849 3.51005 20.9749L3.59005 20.8949V21.0049C3.59005 21.1549 3.72005 21.2849 3.87005 21.2849C4.02005 21.2849 4.15005 21.1549 4.15005 21.0049V20.8949L4.23005 20.9749C4.34005 21.0849 4.52005 21.0849 4.63005 20.9749C4.74005 20.8649 4.74005 20.6849 4.63005 20.5749L4.55005 20.5049H4.66005C4.81005 20.5049 4.94005 20.3749 4.94005 20.2249C4.94005 20.0649 4.81005 19.9349 4.66005 19.9349Z" fill="url(#paint15_radial_18_15559)"/>
<path d="M28.7901 22.9548H28.6801L28.7601 22.8748C28.8701 22.7648 28.8701 22.5848 28.7601 22.4748C28.6501 22.3648 28.4701 22.3648 28.3601 22.4748L28.2801 22.5548V22.4448C28.2801 22.2948 28.1501 22.1648 28.0001 22.1648C27.8501 22.1648 27.7201 22.2948 27.7201 22.4448V22.5548L27.6401 22.4748C27.5301 22.3648 27.3501 22.3648 27.2401 22.4748C27.1301 22.5848 27.1301 22.7648 27.2401 22.8748L27.3201 22.9548H27.2101C27.0601 22.9548 26.9301 23.0848 26.9301 23.2348C26.9301 23.3848 27.0601 23.5148 27.2101 23.5148H27.3201L27.2401 23.5948C27.1301 23.7048 27.1301 23.8848 27.2401 23.9948C27.3501 24.1048 27.5301 24.1048 27.6401 23.9948L27.7201 23.9148V24.0248C27.7201 24.1748 27.8501 24.3048 28.0001 24.3048C28.1501 24.3048 28.2801 24.1748 28.2801 24.0248V23.9148L28.3601 23.9948C28.4701 24.1048 28.6501 24.1048 28.7601 23.9948C28.8701 23.8848 28.8701 23.7048 28.7601 23.5948L28.6801 23.5148H28.7901C28.9401 23.5148 29.0701 23.3848 29.0701 23.2348C29.0701 23.0848 28.9501 22.9548 28.7901 22.9548Z" fill="url(#paint16_radial_18_15559)"/>
<defs>
<radialGradient id="paint0_radial_18_15559" cx="0" cy="0" r="1" gradientUnits="userSpaceOnUse" gradientTransform="translate(21.2973 20.2228) scale(18.5752)">
<stop stop-color="#F1F2F2"/>
<stop offset="1" stop-color="#BCBEC0"/>
</radialGradient>
<linearGradient id="paint1_linear_18_15559" x1="18.4465" y1="25.3764" x2="17.7587" y2="23.4851" gradientUnits="userSpaceOnUse">
<stop offset="0.4804" stop-color="#1B75BB"/>
<stop offset="0.9888" stop-color="#2B3990"/>
</linearGradient>
<linearGradient id="paint2_linear_18_15559" x1="20.4576" y1="25.3833" x2="19.7664" y2="23.4824" gradientUnits="userSpaceOnUse">
<stop offset="0.4804" stop-color="#1B75BB"/>
<stop offset="0.9888" stop-color="#2B3990"/>
</linearGradient>
<linearGradient id="paint3_linear_18_15559" x1="22.4515" y1="25.3833" x2="21.7602" y2="23.4824" gradientUnits="userSpaceOnUse">
<stop offset="0.4804" stop-color="#1B75BB"/>
<stop offset="0.9888" stop-color="#2B3990"/>
</linearGradient>
<linearGradient id="paint4_linear_18_15559" x1="20.9498" y1="26.3058" x2="19.4872" y2="18.1949" gradientUnits="userSpaceOnUse">
<stop offset="0.4804" stop-color="#1B75BB"/>
<stop offset="0.9888" stop-color="#2B3990"/>
</linearGradient>
<linearGradient id="paint5_linear_18_15559" x1="28.6692" y1="19.9164" x2="4.02047" y2="12.9164" gradientUnits="userSpaceOnUse">
<stop offset="0.4804" stop-color="#1B75BB"/>
<stop offset="0.9888" stop-color="#2B3990"/>
</linearGradient>
<radialGradient id="paint6_radial_18_15559" cx="0" cy="0" r="1" gradientUnits="userSpaceOnUse" gradientTransform="translate(18.2973 7.93893) scale(10.7049)">
<stop stop-color="#F1F2F2"/>
<stop offset="1" stop-color="#BCBEC0"/>
</radialGradient>
<linearGradient id="paint7_linear_18_15559" x1="10.1686" y1="5.58067" x2="15.695" y2="3.20954" gradientUnits="userSpaceOnUse">
<stop offset="0.00558659" stop-color="#513468"/>
<stop offset="1" stop-color="#1C1C1C"/>
</linearGradient>
<linearGradient id="paint8_linear_18_15559" x1="17.0977" y1="3.93816" x2="8.99545" y2="6.88076" gradientUnits="userSpaceOnUse">
<stop offset="0.4804" stop-color="#1B75BB"/>
<stop offset="0.9888" stop-color="#2B3990"/>
</linearGradient>
<linearGradient id="paint9_linear_18_15559" x1="10.0424" y1="7.8305" x2="17.4" y2="4.67369" gradientUnits="userSpaceOnUse">
<stop offset="0.00558659" stop-color="#513468"/>
<stop offset="1" stop-color="#1C1C1C"/>
</linearGradient>
<linearGradient id="paint10_linear_18_15559" x1="15.7388" y1="11.5335" x2="21.0084" y2="11.5335" gradientUnits="userSpaceOnUse">
<stop stop-color="#FF2C00"/>
<stop offset="1" stop-color="#FF8C00"/>
</linearGradient>
<radialGradient id="paint11_radial_18_15559" cx="0" cy="0" r="1" gradientUnits="userSpaceOnUse" gradientTransform="translate(25.3003 3.92415) scale(11.9438 11.9438)">
<stop stop-color="#F1F2F2"/>
<stop offset="1" stop-color="#BCBEC0"/>
</radialGradient>
<radialGradient id="paint12_radial_18_15559" cx="0" cy="0" r="1" gradientUnits="userSpaceOnUse" gradientTransform="translate(4.3003 8.92416) scale(11.9438 11.9438)">
<stop stop-color="#F1F2F2"/>
<stop offset="1" stop-color="#BCBEC0"/>
</radialGradient>
<radialGradient id="paint13_radial_18_15559" cx="0" cy="0" r="1" gradientUnits="userSpaceOnUse" gradientTransform="translate(27.0926 9.5142) scale(6.3748 6.3748)">
<stop stop-color="#F1F2F2"/>
<stop offset="1" stop-color="#BCBEC0"/>
</radialGradient>
<radialGradient id="paint14_radial_18_15559" cx="0" cy="0" r="1" gradientUnits="userSpaceOnUse" gradientTransform="translate(6.16464 4.5351) scale(6.3748)">
<stop stop-color="#F1F2F2"/>
<stop offset="1" stop-color="#BCBEC0"/>
</radialGradient>
<radialGradient id="paint15_radial_18_15559" cx="0" cy="0" r="1" gradientUnits="userSpaceOnUse" gradientTransform="translate(4.02655 19.5204) scale(6.3748 6.3748)">
<stop stop-color="#F1F2F2"/>
<stop offset="1" stop-color="#BCBEC0"/>
</radialGradient>
<radialGradient id="paint16_radial_18_15559" cx="0" cy="0" r="1" gradientUnits="userSpaceOnUse" gradientTransform="translate(28.1618 22.5351) scale(6.3748)">
<stop stop-color="#F1F2F2"/>
<stop offset="1" stop-color="#BCBEC0"/>
</radialGradient>
</defs>
</svg>

<svg width="32" height="32" fill="none" xmlns="http://www.w3.org/2000/svg"><path d="M6.92 15.995v-2.42M5 14.605l5.16 4.51M25.95 15.995v-2.42M27.87 14.605l-5.17 4.51M24.7 17.545h2.24M5.87 17.535h2.24" stroke="#433B6B" stroke-miterlimit="10" stroke-linecap="round" stroke-linejoin="round"/><path d="M26.66 23.235c0 5.63-4.57 6.8-10.2 6.8-5.63 0-10.2-1.17-10.2-6.8s4.57-10.2 10.2-10.2c5.63 0 10.2 4.57 10.2 10.2Z" fill="url(#a)"/><path d="M17.95 25.015a.49.49 0 0 1-.49-.49v-1.02a.49.49 0 0 1 .98 0v1.02c0 .27-.22.49-.49.49Z" fill="url(#b)"/><path d="M19.96 25.025a.49.49 0 0 1-.49-.49v-1.03a.49.49 0 0 1 .98 0v1.03c0 .26-.22.49-.49.49Z" fill="url(#c)"/><path d="M21.95 25.025a.49.49 0 0 1-.49-.49v-1.03a.49.49 0 0 1 .98 0v1.03a.49.49 0 0 1-.49.49Z" fill="url(#d)"/><path d="M21.81 24.035h-3.73c-.36 0-.65-.29-.65-.65v-5.35h5.03v5.35c0 .36-.29.65-.65.65Z" fill="url(#e)"/><path d="M23.58 15.695c0 3.93-3.19 4.39-7.12 4.39s-7.12-.46-7.12-4.39c0-3.93 3.19-.64 7.12-.64s7.12-3.29 7.12.64Z" fill="url(#f)"/><path d="M23.54 12.155c0 3.91-3.21 3.85-7.13 3.85s-7.04.07-7.04-3.85 3.17-7.08 7.08-7.08 7.09 3.17 7.09 7.08Z" fill="url(#g)"/><path d="m16.49 5.045-5.53 2.37-.78-1.81c-.44-1.03.03-2.22 1.06-2.66l1.81-.78c1.03-.44 2.21.03 2.65 1.06l.79 1.82Z" fill="url(#h)"/><path d="m15.91 5.295-4.37 1.88a.64.64 0 0 1-.83-.33l-.53-1.24 5.53-2.37.53 1.24c.13.31-.01.68-.33.82Z" fill="url(#i)"/><path d="m17.03 5.615-6.05 2.59a.715.715 0 0 1-.94-.37c-.15-.36.02-.79.38-.94l6.04-2.59c.36-.16.78.01.94.38.16.35-.01.77-.37.93Z" fill="url(#j)"/><path d="M14.96 9.845c-.23 0-.41-.17-.41-.38v-.71c0-.21.19-.38.41-.38.22 0 .41.17.41.38v.71c0 .21-.18.38-.41.38ZM17.96 9.845c-.23 0-.41-.17-.41-.38v-.71c0-.21.19-.38.41-.38.22 0 .41.17.41.38v.71c0 .21-.18.38-.41.38Z" fill="#433B6B"/><path d="m20.61 11.135-4.06-.42c-.45 0-.81.36-.81.81 0 .45.36.81.81.81l4.06-.42c.22 0 .4-.18.4-.4 0-.22-.18-.38-.4-.38Z" fill="url(#k)"/><path d="M26.48 4.705h-.2l.14-.14c.2-.21.2-.54 0-.75a.525.525 0 0 0-.75 0l-.14.14v-.2c0-.29-.24-.53-.53-.53-.29 0-.53.24-.53.53v.2l-.14-.14a.525.525 0 0 0-.75 0c-.21.21-.21.54 0 .75l.14.14h-.2c-.28 0-.52.24-.52.53 0 .29.24.53.53.53h.2l-.14.14c-.21.21-.21.54 0 .75.2.21.54.21.75 0l.14-.14v.2c0 .29.24.53.53.53.29 0 .53-.24.53-.53v-.21l.14.14c.2.21.54.21.75 0 .2-.21.2-.54 0-.75l-.14-.14h.2c.29 0 .53-.24.53-.53a.547.547 0 0 0-.54-.52Z" fill="url(#l)"/><path d="M5.48 9.705h-.2l.14-.14c.2-.21.2-.54 0-.75a.525.525 0 0 0-.75 0l-.14.15v-.2c0-.29-.24-.53-.53-.53-.29 0-.53.24-.53.53v.2l-.14-.15a.525.525 0 0 0-.75 0c-.21.21-.21.54 0 .75l.15.14h-.2c-.29 0-.53.24-.53.53 0 .29.24.53.53.53h.2l-.14.14c-.21.21-.21.54 0 .75.2.21.54.21.75 0l.14-.15v.2c0 .29.24.53.53.53.29 0 .53-.24.53-.53v-.2l.14.14c.2.21.54.21.75 0 .2-.21.2-.54 0-.75l-.15-.13h.2c.29 0 .53-.24.53-.53 0-.29-.24-.53-.53-.53Z" fill="url(#m)"/><path d="M27.72 9.935h-.11l.08-.08c.11-.11.11-.29 0-.4a.284.284 0 0 0-.4 0l-.08.08v-.11c0-.15-.13-.28-.28-.28-.15 0-.28.13-.28.28v.11l-.08-.08a.284.284 0 0 0-.4 0c-.11.11-.11.29 0 .4l.08.08h-.11c-.15 0-.28.13-.28.28 0 .15.13.28.28.28h.11l-.08.08c-.11.11-.11.29 0 .4.11.11.29.11.4 0l.08-.08v.11c0 .15.13.28.28.28.15 0 .28-.13.28-.28v-.11l.08.08c.11.11.29.11.4 0 .11-.11.11-.29 0-.4l-.08-.08h.11c.15 0 .28-.13.28-.28 0-.16-.12-.28-.28-.28Z" fill="url(#n)"/><path d="M6.79 4.955h-.1l.08-.08c.11-.11.11-.29 0-.4a.284.284 0 0 0-.4 0l-.08.08v-.11c0-.15-.13-.28-.28-.28-.15 0-.28.13-.28.28v.11l-.08-.08a.284.284 0 0 0-.4 0c-.11.11-.11.29 0 .4l.08.08h-.11c-.15 0-.28.13-.28.28 0 .15.13.28.28.28h.11l-.08.08c-.11.11-.11.29 0 .4.11.11.29.11.4 0l.08-.08v.11c0 .15.13.28.28.28.15 0 .28-.13.28-.28v-.11l.08.08c.11.11.29.11.4 0 .11-.11.11-.29 0-.4l-.08-.08h.11c.15 0 .28-.13.28-.28 0-.15-.13-.28-.29-.28Z" fill="url(#o)"/><path d="M4.66 19.935h-.11l.08-.08c.11-.11.11-.29 0-.4a.284.284 0 0 0-.4 0l-.08.08v-.11c0-.15-.13-.28-.28-.28-.15 0-.28.13-.28.28v.11l-.08-.08a.284.284 0 0 0-.4 0c-.11.11-.11.29 0 .4l.08.08h-.11c-.15 0-.28.13-.28.28 0 .15.13.28.28.28h.11l-.08.08c-.11.11-.11.29 0 .4.11.11.29.11.4 0l.08-.08v.11c0 .15.13.28.28.28.15 0 .28-.13.28-.28v-.11l.08.08c.11.11.29.11.4 0 .11-.11.11-.29 0-.4l-.08-.07h.11c.15 0 .28-.13.28-.28 0-.16-.13-.29-.28-.29Z" fill="url(#p)"/><path d="M28.79 22.955h-.11l.08-.08c.11-.11.11-.29 0-.4a.284.284 0 0 0-.4 0l-.08.08v-.11c0-.15-.13-.28-.28-.28-.15 0-.28.13-.28.28v.11l-.08-.08a.284.284 0 0 0-.4 0c-.11.11-.11.29 0 .4l.08.08h-.11c-.15 0-.28.13-.28.28 0 .15.13.28.28.28h.11l-.08.08c-.11.11-.11.29 0 .4.11.11.29.11.4 0l.08-.08v.11c0 .15.13.28.28.28.15 0 .28-.13.28-.28v-.11l.08.08c.11.11.29.11.4 0 .11-.11.11-.29 0-.4l-.08-.08h.11c.15 0 .28-.13.28-.28a.28.28 0 0 0-.28-.28Z" fill="url(#q)"/><defs><linearGradient id="b" x1="18.447" y1="25.376" x2="17.759" y2="23.485" gradientUnits="userSpaceOnUse"><stop offset=".48" stop-color="#1B75BB"/><stop offset=".989" stop-color="#2B3990"/></linearGradient><linearGradient id="c" x1="20.458" y1="25.383" x2="19.766" y2="23.482" gradientUnits="userSpaceOnUse"><stop offset=".48" stop-color="#1B75BB"/><stop offset=".989" stop-color="#2B3990"/></linearGradient><linearGradient id="d" x1="22.451" y1="25.383" x2="21.76" y2="23.482" gradientUnits="userSpaceOnUse"><stop offset=".48" stop-color="#1B75BB"/><stop offset=".989" stop-color="#2B3990"/></linearGradient><linearGradient id="e" x1="20.95" y1="26.306" x2="19.487" y2="18.195" gradientUnits="userSpaceOnUse"><stop offset=".48" stop-color="#1B75BB"/><stop offset=".989" stop-color="#2B3990"/></linearGradient><linearGradient id="f" x1="28.669" y1="19.916" x2="4.02" y2="12.916" gradientUnits="userSpaceOnUse"><stop offset=".48" stop-color="#1B75BB"/><stop offset=".989" stop-color="#2B3990"/></linearGradient><linearGradient id="h" x1="10.169" y1="5.581" x2="15.695" y2="3.21" gradientUnits="userSpaceOnUse"><stop offset=".006" stop-color="#513468"/><stop offset="1" stop-color="#1C1C1C"/></linearGradient><linearGradient id="i" x1="17.098" y1="3.938" x2="8.995" y2="6.881" gradientUnits="userSpaceOnUse"><stop offset=".48" stop-color="#1B75BB"/><stop offset=".989" stop-color="#2B3990"/></linearGradient><linearGradient id="j" x1="10.042" y1="7.83" x2="17.4" y2="4.674" gradientUnits="userSpaceOnUse"><stop offset=".006" stop-color="#513468"/><stop offset="1" stop-color="#1C1C1C"/></linearGradient><linearGradient id="k" x1="15.739" y1="11.534" x2="21.008" y2="11.534" gradientUnits="userSpaceOnUse"><stop stop-color="#FF2C00"/><stop offset="1" stop-color="#FF8C00"/></linearGradient><radialGradient id="a" cx="0" cy="0" r="1" gradientUnits="userSpaceOnUse" gradientTransform="translate(21.297 20.223) scale(18.5752)"><stop stop-color="#F1F2F2"/><stop offset="1" stop-color="#BCBEC0"/></radialGradient><radialGradient id="g" cx="0" cy="0" r="1" gradientUnits="userSpaceOnUse" gradientTransform="translate(18.297 7.939) scale(10.7049)"><stop stop-color="#F1F2F2"/><stop offset="1" stop-color="#BCBEC0"/></radialGradient><radialGradient id="l" cx="0" cy="0" r="1" gradientUnits="userSpaceOnUse" gradientTransform="translate(25.3 3.924) scale(11.9438)"><stop stop-color="#F1F2F2"/><stop offset="1" stop-color="#BCBEC0"/></radialGradient><radialGradient id="m" cx="0" cy="0" r="1" gradientUnits="userSpaceOnUse" gradientTransform="translate(4.3 8.924) scale(11.9438)"><stop stop-color="#F1F2F2"/><stop offset="1" stop-color="#BCBEC0"/></radialGradient><radialGradient id="n" cx="0" cy="0" r="1" gradientUnits="userSpaceOnUse" gradientTransform="translate(27.093 9.514) scale(6.3748)"><stop stop-color="#F1F2F2"/><stop offset="1" stop-color="#BCBEC0"/></radialGradient><radialGradient id="o" cx="0" cy="0" r="1" gradientUnits="userSpaceOnUse" gradientTransform="translate(6.165 4.535) scale(6.3748)"><stop stop-color="#F1F2F2"/><stop offset="1" stop-color="#BCBEC0"/></radialGradient><radialGradient id="p" cx="0" cy="0" r="1" gradientUnits="userSpaceOnUse" gradientTransform="translate(4.027 19.52) scale(6.3748)"><stop stop-color="#F1F2F2"/><stop offset="1" stop-color="#BCBEC0"/></radialGradient><radialGradient id="q" cx="0" cy="0" r="1" gradientUnits="userSpaceOnUse" gradientTransform="translate(28.162 22.535) scale(6.3748)"><stop stop-color="#F1F2F2"/><stop offset="1" stop-color="#BCBEC0"/></radialGradient></defs></svg>
